assets/assets/fonts/ic_morentouxiang.svg

<?xml version="1.0" standalone="no"?><!DOCTYPE svg PUBLIC "-//W3C//DTD SVG 1.1//EN"
    "http://www.w3.org/Graphics/SVG/1.1/DTD/svg11.dtd">
<svg t="1641384896093" class="icon" viewBox="0 0 1024 1024" version="1.1"
    xmlns="http://www.w3.org/2000/svg" p-id="2194" xmlns:xlink="http://www.w3.org/1999/xlink"
    width="64" height="64">
  <path
      d="M0 0m128 0l768 0q128 0 128 128l0 768q0 128-128 128l-768 0q-128 0-128-128l0-768q0-128 128-128Z"
      fill="#E0E0E0" p-id="2195"></path>
  <path
      d="M341.696 329.728c5.333333-85.269333 74.816-153.472 160.341333-158.805333 99.413333-5.333333 180.629333 73.536 180.629334 170.538666C682.666667 435.264 605.717333 512 511.658667 512c-98.346667 0-176.362667-83.136-169.962667-182.272zM832 803.946667c0 15.573333-12.010667 28.053333-27.050667 28.053333H219.050667C204.010667 832 192 819.541333 192 803.946667V720.853333C192 610.773333 405.333333 554.666667 511.509333 554.666667c106.154667 0 319.488 55.04 319.488 166.186666L832 803.946667z"
      fill="#999999" p-id="2196"></path>
</svg>

<svg class="icon" viewBox="0 0 1024 1024" xmlns="http://www.w3.org/2000/svg" width="64" height="64"><path d="M128 0h768q128 0 128 128v768q0 128-128 128H128Q0 1024 0 896V128Q0 0 128 0Z" fill="#E0E0E0"/><path d="M341.696 329.728c5.333-85.27 74.816-153.472 160.341-158.805 99.414-5.334 180.63 73.536 180.63 170.538 0 93.803-76.95 170.539-171.008 170.539-98.347 0-176.363-83.136-169.963-182.272zM832 803.947C832 819.52 819.99 832 804.95 832h-585.9c-15.04 0-27.05-12.459-27.05-28.053v-83.094c0-110.08 213.333-166.186 319.51-166.186 106.154 0 319.487 55.04 319.487 166.186L832 803.947z" fill="#999"/></svg>
